!!!!SEGMENT: pl-gd--ee-1638--005-015_marenzio-luca--il-primo-libro-de-madrigali-spirituali-a-cinque-voci-non-fu-mai-cervo.krn
!!!cenid: 15xx:968
!!!COM: Marenzio, Luca
!!!COM-rismid: pe30003955
!!!CDT: ~1553-1599/08/22
!!!CNT: Italian
!!!GTL: Il Primo libro de madrigali spirituali a cinque voci
!!!OTL: Non fu mai cervo
!!!OMV: 015
!!!PDT: 1588
!!!AGN:
!!!SMS-siglum: PL-GD
!!!SMS-shelfmark: Ee 1638
!!!SMS-shelfwork: 005-015 G
!!!SMS-variant:
!!!SMS-altvar:
!!!NIFC-rismid: 990039269
!!!URL-scan: https://repozytorium.nifc.pl/islandora/object/pl-gd%3A57883/datastream/PDF/view
!!!ONB-nifc: UWAGA: zbiór na stronach: Canto: s. 666-677, Alto: s. 514-525, Tenore: s. 362-373, Bassus: s. 210-221, Quinto: s. 58-69. Uwaga: utwory podzielone wg tytułów w spisach treści dostępnych na końcu każdej księgi głosowej.
!!!AIN: 1 alto 1 bass  1 soprn 1 tenor  1 vox
!!!key: F
**kern	**text	**kern	**text	**kern	**text	**kern	**text	**kern	**text
*part5	*part5	*part4	*part4	*part3	*part3	*part2	*part2	*part1	*part1
*staff5	*staff5	*staff4	*staff4	*staff3	*staff3	*staff2	*staff2	*staff1	*staff1
*I"QVINTO	*	*I"BASSO	*	*I"TENORE	*	*I"ALTO	*	*I"CANTO	*
*I'V	*	*I'B	*	*I'T	*	*I'A	*	*I'S	*
*ICvox	*	*ICvox	*	*ICvox	*	*ICvox	*	*ICvox	*
*Ivox	*	*Ibass 	*	*Itenor 	*	*Ialto	*	*Isoprn	*
*clefC3	*	*clefC4	*	*clefC3	*	*clefC2	*	*clefG2	*
*k[b-]	*	*k[b-]	*	*k[b-]	*	*k[b-]	*	*k[b-]	*
*F:	*	*F:	*	*F:	*	*F:	*	*F:	*
*M2/1	*	*M2/1	*	*M2/1	*	*M2/1	*	*M2/1	*
*met(C)	*	*met(C)	*	*met(C)	*	*met(C)	*	*met(C)	*
=1-	=1-	=1-	=1-	=1-	=1-	=1-	=1-	=1-	=1-
!LO:TX:a:t=Seſtina Prima parte	!	!LO:TX:a:t=Seſtina Prima parte	!	!LO:TX:a:t=Seſtina Prima parte	!	!LO:TX:a:t=Seſtina Prima parte	!	!	!
!	!	!	!	!	!	!LO:TX:t=P:problem:podwójnie zapisany znak przykluczowy, kolejno: B- b-	!	!	!
00r	.	00r	.	0r	.	2r	.	2cc\	NOn
.	.	.	.	.	.	2f\	Non	4a/	fu
.	.	.	.	.	.	.	.	4a/	mai
.	.	.	.	.	.	4d/	fu	2dd\	cer-
.	.	.	.	.	.	4d/	mai	.	.
.	.	.	.	.	.	2a\	cer-	2cc\	-vo
.	.	.	.	2c/	NOn	2g\	-vo	8gg\	si
.	.	.	.	.	.	.	.	8ff\	ve-
.	.	.	.	.	.	.	.	8ee\	-lo-
.	.	.	.	.	.	.	.	8dd\	-ce al
.	.	.	.	4A/	fu	8cc\	si	2cc\	cor-
.	.	.	.	.	.	8b-\	ve-	.	.
.	.	.	.	4A/	mai	8a\	-lo-	.	.
.	.	.	.	.	.	8g\	-ce al	.	.
.	.	.	.	2d\	ce-	2f\	cor-	2a/	-ſo
.	.	.	.	2c/	-ruo	2e/	-ſo	4r	.
*	*	*	*	*	*	*	*ij	*	*ij
.	.	.	.	.	.	.	.	4cc\	NOn
=3-	=3-	=3-	=3-	=3-	=3-	=3-	=3-	=3-	=3-
2c/	Non	0r	.	8g\	si	4r	.	2.ee\	fu
.	.	.	.	8f\	ve-	.	.	.	.
.	.	.	.	8e\	-lo-	4g\	Non	.	.
.	.	.	.	8d\	-ce	.	.	.	.
4A/	fu	.	.	2c/	cor-	4a\	fu	.	.
4A/	mai	.	.	.	.	4a\	mai	4ff\	mai
!	!	!	!	!LO:N:acc=#	!	!	!	!	!
2d\	ce-	.	.	2Bn/	-ſo	2g\	cer-	4dd\	cer-
.	.	.	.	.	.	.	.	4dd\	-vo
1c\	-ruo	.	.	4r	.	2e/	-vo	8gg\	si
.	.	.	.	.	.	.	.	8ff\	ve-
*	*	*	*	*	*ij	*	*	*	*
.	.	.	.	4c/	NOn	.	.	8ee\	-lo-
!	!	!	!	!	!	!	!	!LO:SIC:v:t=custos cc	!
.	.	.	.	.	.	.	.	8dd\	-ce al
!	!	!	!	!	!	!	!	!LO:LB:g=original	!
=4-	=4-	=4-	=4-	=4-	=4-	=4-	=4-	=4-	=4-
.	.	2F/	Non	4A/	fu	8a\	si	2cc\	cor-
.	.	.	.	.	.	8g\	ve-	.	.
.	.	.	.	4A/	mai	8f\	-lo-	.	.
.	.	.	.	.	.	8g\	-ce al	.	.
!	!	!	!	!LO:SIC:v:t=custos c	!	!	!	!	!
8F/	si	4D/	fu	2d\	ce-	2a\	cor-	2dd\	-ſo
8G/	ve-	.	.	.	.	.	.	.	.
8A/	-loc`	4D/	mai	.	.	.	.	.	.
8B-/	al	.	.	.	.	.	.	.	.
!	!	!	!	!LO:LB:g=original	!	!	!	!	!
4c/	cor-	2A/	ce-	2c/	-ruo	2e/	-ſo	4r	.
*	*	*	*	*	*	*	*	*	*Xij
4A/	-ſo	.	.	.	.	.	.	4a/	Nõ(n)
!	!	!	!	!	!	!	!	!LO:N:acc=#	!
2r	.	2G/	-ruo	8g\	si	4r	.	4bn/	fu
.	.	.	.	8f\	ve-	.	.	.	.
!	!	!	!	!	!	!LO:SIC:v:t=custos e	!	!	!
.	.	.	.	8e\	-lo-	4g\	Non	4b/	mai
.	.	.	.	8d\	-ce	.	.	.	.
!	!	!	!	!	!	!LO:LB:g=original	!	!	!
=5-	=5-	=5-	=5-	=5-	=5-	=5-	=5-	=5-	=5-
4r	.	8c\	si	2c/	cor-	4e/	fu	2cc\	cer-
.	.	8B-\	ve-	.	.	.	.	.	.
*	*ij	*	*	*	*	*	*	*	*
4c/	NOn	8A\	-lo-	.	.	4e/	mai	.	.
.	.	8G/	-ce al	.	.	.	.	.	.
4A/	fu	2F/	cor-	2c/	-ſo	2a\	cer-	2cc\	-vo
!LO:SIC:v:t=custos d	!	!	!	!	!	!	!	!	!
4A/	mai	.	.	.	.	.	.	.	.
!LO:LB:g=original	!	!	!	!	!	!	!	!	!
2d\	ce-	2G/	-ſo	2r	.	2g\	-vo	8b-y/	si
.	.	.	.	.	.	.	.	8cc\	ve-
.	.	.	.	.	.	.	.	8dd\	-lo-
.	.	.	.	.	.	.	.	8ee\	-ce
2c/	-ruo	2A/	Nè	4r	.	8cc\	si	4ff\	cor-
.	.	.	.	.	.	8b-\	ve-	.	.
*	*	*	*	*	*Xij	*	*	*	*
.	.	.	.	4c/	Nè	8a\	-lo-	4cc\	-ſo
.	.	.	.	.	.	8g\	-ce al	.	.
=6-	=6-	=6-	=6-	=6-	=6-	=6-	=6-	=6-	=6-
8f\	si	2B-\	le-	2.d\	leo-	2f\	cor-	4r	.
8e\	ve-	.	.	.	.	.	.	.	.
8d\	-loc`	.	.	.	.	.	.	2dd\	Nè
8c\	al	.	.	.	.	.	.	.	.
!	!	!LO:SIC:v:t=custos A	!	!	!	!	!	!	!
2B-/	cor-	2G/	-o-	.	.	2g\	-ſo	.	.
.	.	.	.	4B-y/	-par-	.	.	2ee\	leo-
!	!	!LO:LB:g=original	!	!	!	!	!	!	!
1A	-ſo	2A/	-par-	4c/	-do	4r	.	.	.
*	*Xij	*	*	*	*	*	*Xij	*	*
.	.	.	.	4A/	(n)ò(n)	4e/	Nè	2cc\	-par-
.	.	2F/	-do	2a\	ti-	2f\	leo-	.	.
.	.	.	.	.	.	.	.	2dd\	-do
=7-	=7-	=7-	=7-	=7-	=7-	=7-	=7-	=7-	=7-
0r	.	2G/	tig-	1g	-gre	2d/	-par-	.	.
!	!	!	!	!	!	!	!	!LO:N:acc=#	!
.	.	.	.	.	.	.	.	2bn/	(n)ò(n)
.	.	2E/	-re in	.	.	4e/	-do	.	.
.	.	.	.	.	.	4g\	(n)ò(n)	2cc\	ti-
.	.	4F/	al-	4r	.	4a\	tig-	.	.
.	.	4E/	-cun	4e\	in	4g\	-re	4cc\	-gre in
.	.	2A/	boſ-	4f\	al-	4r	.	4cc\	al-
.	.	.	.	4e\	-cun	4c/	in	4a/	bo-
=8-	=8-	=8-	=8-	=8-	=8-	=8-	=8-	=8-	=8-
!	!	!	!	!	!	!	!	!LO:SIC:v:t=custos cc	!
!	!	!	!	!	!	!	!	!LO:N:acc=#	!
2r	.	1G	-co	1g	boſ-	4d/	al-	4bn/	.
!	!	!	!	!	!	!	!	!LO:LB:g=original	!
.	.	.	.	.	.	4e/	-cun	2cc\	.
2g\	Nè	.	.	.	.	2d/	boſ-	.	.
!	!	!	!	!	!	!	!	!LO:N:acc=#	!
.	.	.	.	.	.	.	.	4bn/	.
8c/	fiu-	2r	.	2e\	-co	1g	-co	1cc	-ſco
8d\	.	.	.	.	.	.	.	.	.
8e\	.	.	.	.	.	.	.	.	.
8f\	.	.	.	.	.	.	.	.	.
4g\	.	2c\	Nè	2e\	Nè	.	.	.	.
4e\	-m`ai-	.	.	.	.	.	.	.	.
=9-	=9-	=9-	=9-	=9-	=9-	=9-	=9-	=9-	=9-
2a\	-ta-	8F/	fiu-	2f\	fiu-	1r	.	2r	.
.	.	8G/	.	.	.	.	.	.	.
.	.	8A/	.	.	.	.	.	.	.
.	.	8B-\	.	.	.	.	.	.	.
!	!	!	!	!LO:SIC:v:t=custos d	!	!	!	!	!
4g\	-to	4c\	.	2e\	-me	.	.	2cc\	Nè
4.a\	da	4A/	-m`ai-	.	.	.	.	.	.
!	!	!	!	!LO:LB:g=original	!	!	!	!	!
.	.	2d\	-ta-	1r	.	2r	.	8f/	fiu-
8g\	con-	.	.	.	.	.	.	8g/	.
8f\	-ti-	.	.	.	.	.	.	8a/	.
8f\	-nu-	.	.	.	.	.	.	8b-y/	.
4e\	-a piog-	4c\	-to	.	.	2a\	è	4cc\	.
!LO:SIC:v:t=custos d	!	!	!	!	!	!	!	!	!
4d\	-gia	4.d\	da	.	.	.	.	4a/	-m`ai-
!LO:LB:g=original	!	!	!	!	!	!	!	!	!
=10-	=10-	=10-	=10-	=10-	=10-	=10-	=10-	=10-	=10-
1r	.	.	.	2r	.	8d/	fiu-	2dd\	-ta-
!	!	!	!	!	!	!LO:SIC:v:t=custos f	!	!	!
.	.	8c\	con-	.	.	8e/	.	.	.
!	!	!	!	!	!	!LO:LB:g=original	!	!	!
.	.	8B-\	-ti-	.	.	8f\	.	.	.
!	!	!LO:SIC:v:t=custos A	!	!	!	!	!	!	!
.	.	8B-\	-nua	.	.	8g\	.	.	.
!	!	!LO:LB:g=original	!	!	!	!	!	!	!
.	.	4A/	piog-	4r	.	4a\	.	4cc\	-to
.	.	4G/	-gia	4d\	Nè	4d/	-m`ai-	4.dd\	da
2r	.	1r	.	8G/	fiu	2g\	-ta-	.	.
.	.	.	.	8A/	.	.	.	8cc\	con-
.	.	.	.	8B-/	.	.	.	8b-/	-ti-
.	.	.	.	8G/	.	.	.	8b-/	-nu-
4r	.	.	.	4d\	.	4f#X\	-to	4a/	-a piog-
*	*ij	*	*	*	*	*	*	*	*
4d\	Nè	.	.	4G/	m`ai-	4.g\	da	4g/	-gia
=11-	=11-	=11-	=11-	=11-	=11-	=11-	=11-	=11-	=11-
8e\	fiu-	00r	.	2c/	-ta-	.	.	2r	.
8f\	-m`a-	.	.	.	.	8fny\	con-	.	.
8g\	-i-	.	.	.	.	8e/	-ti-	.	.
8a\	-ta-	.	.	.	.	8e/	-nua	.	.
*	*	*	*	*	*	*	*	*	*ij
!	!	!	!	!LO:N:acc=#	!	!	!	!	!
4g\	-to	.	.	4Bn/	-to	4d/	piog-	2gg\	Nè
4e\	da	.	.	4.c/	da	4c/	-gia	.	.
2a\	con-	.	.	.	.	2r	.	8cc\	fiu-
.	.	.	.	8B/	con-	.	.	8dd\	.
.	.	.	.	8A/	-ti-	.	.	8ee\	.
.	.	.	.	8A/	-nua	.	.	8ff\	.
4d\	-ti-	.	.	4G/	piog-	4r	.	4gg\	.
4.f\	-nu-	.	.	4F/	-gia	4.a\	da	4cc\	-m`ai-
=12-	=12-	=12-	=12-	=12-	=12-	=12-	=12-	=12-	=12-
.	-a	.	.	0r	.	.	.	2ff\	-ta-
8e\	.	.	.	.	.	8g\	con-	.	.
8d\	pi-	.	.	.	.	8f\	-ti-	.	.
8d\	-o-	.	.	.	.	8f\	-nua	.	.
!	!	!	!	!	!	!	!	!LO:SIC:v:t=custos cc	!
1.c	-gi-	.	.	.	.	4.g\	piog-	4ee\	-to
!	!	!	!	!	!	!	!	!LO:LB:g=original	!
.	.	.	.	.	.	.	.	4.cc\	da
.	.	.	.	.	.	8f\	.	.	.
.	.	.	.	.	.	4e/	.	.	.
.	.	.	.	.	.	.	.	8b-/	con-
.	.	.	.	.	.	2f\	.	8a/	-ti-
.	.	.	.	.	.	.	.	8a/	-nu-
.	.	.	.	.	.	.	.	2g/	-a piog-
.	.	.	.	.	.	4e/	.	.	.
=13-	=13-	=13-	=13-	=13-	=13-	=13-	=13-	=13-	=13-
1F	-a	2r	.	2r	.	1f	-gia	2f/	-gia
*	*Xij	*	*	*	*	*	*	*	*Xij
.	.	2F/	Nè	2f\	Nè	.	.	2a/	Nè
2r	.	2c\	nu-	2e\	nu-	2r	.	2g/	nu-
!	!	!	!	!LO:SIC:v:t=custos e	!	!	!	!	!
2f\	Nè	2F/	-be	2f\	-be	2a\	Nè	4.a/	-be
.	.	.	.	.	.	.	.	8b-/	.
!	!	!	!	!LO:LB:g=original	!	!	!	!	!
=14-	=14-	=14-	=14-	=14-	=14-	=14-	=14-	=14-	=14-
!	!	!	!	!	!	!LO:SIC:v:t=custos a	!	!	!
2e\	nu-	4r	.	4r	.	2g\	nu-	2cc\	.
.	.	4c\	che	4e\	che	.	.	.	.
!	!	!	!	!	!	!LO:LB:g=original	!	!	!
2f\	-be	4A/	s`af-	4c/	s`af-	2a\	-be	2r	.
.	.	4.d\	-fret-	4.f\	-fret-	.	.	.	.
2r	.	.	.	.	.	2r	.	2ff\	Nè
.	.	8e\	-t`i-	8g\	-t`i-	.	.	.	.
.	.	8f\	-nã(n)-	8a\	-nã(n)-	.	.	.	.
.	.	8d\	-zial	8f\	-zial	.	.	.	.
4r	.	2c\	ven-	2g\	ven-	4r	.	2ee\	nu-
!LO:SIC:v:t=custos A	!	!	!	!	!	!	!	!	!
4c/	che	.	.	.	.	4e/	che	.	.
!LO:LB:g=original	!	!	!	!	!	!	!	!	!
=15-	=15-	=15-	=15-	=15-	=15-	=15-	=15-	=15-	=15-
4A/	s`af-	2F/	-to	2a\	-to	4c/	s`af-	2ff\	-be
4.d\	-fret-	.	.	.	.	4.f\	-fret-	.	.
.	.	2r	.	2f\	Nè	.	.	2r	.
8e\	-t`i	.	.	.	.	8g\	-t`i	.	.
8f\	nã(n)-	.	.	.	.	8a\	nã(n)-	.	.
8d\	-zi al	.	.	.	.	8f\	-zi al	.	.
2c/	ven-	1r	.	2e\	nu-	2g\	ven-	4r	.
.	.	.	.	.	.	.	.	4cc\	che
2F/	-to	.	.	2f\	-be	2a\	-to	4a/	s`af-
.	.	.	.	.	.	.	.	4.dd\	-fret-
=16-	=16-	=16-	=16-	=16-	=16-	=16-	=16-	=16-	=16-
2B-/	Nè	0r	.	1r	.	2f\	Nè	.	.
.	.	.	.	.	.	.	.	8ee\	-ti
.	.	.	.	.	.	.	.	8ff\	nã(n)-
.	.	.	.	.	.	.	.	8dd\	-zi al
2A/	nu-	.	.	.	.	2f\	nu-	2cc\	vẽ(n)-
2B-/	-be	.	.	2f\	Nè	2d/	-be	4f/	-to
.	.	.	.	.	.	.	.	4b-/	Nè
!	!	!	!	!	!	!	!	!LO:SIC:v:t=custos a	!
4r	.	.	.	2e\	nu-	4r	.	2g/	nu-
4c/	che	.	.	.	.	4e/	che	.	.
!	!	!	!	!	!	!	!	!LO:LB:g=original	!
=17-	=17-	=17-	=17-	=17-	=17-	=17-	=17-	=17-	=17-
4A/	s`af-	2r	.	1f	-be	4c/	s`af-	1a	-be
4.d\	-fret`	.	.	.	.	4.f\	-fret`	.	.
.	.	2F/	Nè	.	.	.	.	.	.
8e\	i-	.	.	.	.	8g\	i-	.	.
8f\	-nã(n)-	.	.	.	.	8a\	-nã(n)-	.	.
8d\	-zi al	.	.	.	.	8f\	-zi	.	.
!	!	!LO:SIC:v:t=custos F	!	!	!	!	!	!	!
2.c/	ven-	2E/	nu-	4r	.	2g\	al	4r	.
.	.	.	.	4c/	che	.	.	4e/	che
!	!	!LO:LB:g=original	!	!	!	!	!	!	!
.	.	2F/	-be	4A/	s af-	2a\	ven-	4c/	s af-
4A/	-to	.	.	4.d\	-fret`	.	.	4.f/	-fret`
=18-	=18-	=18-	=18-	=18-	=18-	=18-	=18-	=18-	=18-
2r	.	2r	.	.	.	2f\	-to nè	.	.
.	.	.	.	8e\	i-	.	.	8g/	i-
.	.	.	.	8f\	-nã(n)-	.	.	8a/	-nã(n)-
.	.	.	.	8d\	-zi al	.	.	8f/	-zi al
!	!	!	!	!LO:SIC:v:t=custos F	!	!LO:SIC:v:t=custos f	!	!	!
4r	.	4r	.	2c/	vẽ(n)-	2e/	nu-	2g/	vẽ(n)-
!LO:SIC:v:t=custos c	!	!	!	!	!	!	!	!	!
*	*ij	*	*	*	*	*	*	*	*
4e\	che	4c\	che	.	.	.	.	.	.
!LO:LB:g=original	!	!	!	!LO:LB:g=original	!	!LO:LB:g=original	!	!	!
4c/	s af-	4A/	s af-	2F/	-to	1f	-be	4a/	-to
4.f\	-fret`-	4.d\	-fret`-	.	.	.	.	4f/	i-
.	.	.	.	4r	.	.	.	4.a/	-nã(n)-
8g\	-in-	8e\	-in-	.	.	.	.	.	.
8a\	-nan-	8f\	-nan-	4d\	i-	.	.	.	.
8f\	-zi al	8d\	-zi al	.	.	.	.	8b-/	-zi al
=19-	=19-	=19-	=19-	=19-	=19-	=19-	=19-	=19-	=19-
4g\	ven-	1c	ven-	4e\	-nã(n)-	1r	.	1cc	vẽ(n)-
2f\	.	.	.	4f\	-zi al	.	.	.	.
.	.	.	.	2g\	vẽ(n)-	.	.	.	.
4e\	.	.	.	.	.	.	.	.	.
2f\	-to	2F/	-to	2a\	-to	2r	.	1cc	-to
4r	.	1A\	Nè	4r	.	2cc\	Nè	.	.
*	*Xij	*	*	*	*	*	*	*	*
4e\	Nè	.	.	4a\	Nè	.	.	.	.
=20-	=20-	=20-	=20-	=20-	=20-	=20-	=20-	=20-	=20-
1f	vo-	.	.	8a\	vo-	8cc\	vo-	2r	.
.	.	.	.	8g\	-la	8b-\	-la	.	.
.	.	.	.	8f\	ſi	8a\	ſi	.	.
.	.	.	.	8e\	leg-	8g\	leg-	.	.
.	.	1B-	vo-	2d\	-gier	4f\	-gier	4r	.
*	*	*	*	*	*ij	*	*ij	*	*
.	.	.	.	.	.	4b-\	Nè	4dd\	Nè
1g	-la	.	.	4r	.	8b-\	vo-	8dd\	vo-
.	.	.	.	.	.	8a\	-la	8cc\	-la
.	.	.	.	4g\	Nè	8g\	ſi	8b-/	ſi
.	.	.	.	.	.	8f\	leg-	8a/	leg-
.	.	1c\	-la	8g\	vo-	2e/	-gier	4g/	-gier
.	.	.	.	8f\	-la	.	.	.	.
*	*	*	*	*	*	*	*Xij	*	*ij
.	.	.	.	8e\	ſi	.	.	4gg\	Nè
.	.	.	.	8d\	leg-	.	.	.	.
=21-	=21-	=21-	=21-	=21-	=21-	=21-	=21-	=21-	=21-
1e	ſi	.	.	1c	-gier	2r	.	8gg\	vo-
.	.	.	.	.	.	.	.	8ff\	-la
.	.	.	.	.	.	.	.	8ee\	ſi
.	.	.	.	.	.	.	.	8dd\	leg-
!	!	!	!	!	!	!	!	!LO:SIC:v:t=custos ee	!
.	.	1A	ſi	.	.	4r	.	4cc\	-gier
!	!	!	!	!	!	!	!	!LO:LB:g=original	!
.	.	.	.	.	.	4cc\	Nè	4ee\	Nè
2e\	leg-	.	.	2r	.	8cc\	vo-	8ee\	vo-
.	.	.	.	.	.	8b-\	-la	8dd\	-la
.	.	.	.	.	.	8a\	ſi	8cc\	ſi
.	.	.	.	.	.	8g\	leg-	8b-\	leg-
*	*	*	*	*	*Xij	*	*	*	*
2f\	-gier	2d\	leg-	8d\	dar-	2f\	-gier	2a/	-gier
.	.	.	.	8e\	.	.	.	.	.
.	.	.	.	8f\	.	.	.	.	.
!	!	!	!	!LO:SIC:v:t=custos g	!	!	!	!	!
.	.	.	.	8d\	.	.	.	.	.
*	*	*	*	*	*	*	*	*	*Xij
!	!	!	!	!LO:LB:g=original	!	!	!	!	!
=22-	=22-	=22-	=22-	=22-	=22-	=22-	=22-	=22-	=22-
8c/	dar-	2c\	-gier	2g\	.	8e/	dar-	2r	.
8d\	.	.	.	.	.	8f\	.	.	.
8e\	.	.	.	.	.	8g\	.	.	.
8c\	.	.	.	.	.	8e\	.	.	.
!	!	!	!	!	!	!LO:SIC:v:t=custos a	!	!	!
4f\	.	8F/	dar-	2f\	-do	4a\	.	8a/	dar-
.	.	8G/	.	.	.	.	.	8b-\	.
!	!	!	!	!	!	!LO:LB:g=original	!	!	!
8c/	-do	8A/	.	.	.	4a\	-do	8cc\	.
!LO:SIC:v:t=custos d	!	!	!	!	!	!	!	!	!
8c/	Nè	8F/	.	.	.	.	.	8a/	.
!LO:LB:g=original	!	!LO:SIC:v:t=custos F	!	!	!	!	!	!	!
4d\	ſtra-	4B-\	.	2r	.	8f\	dar-	4dd\	.
.	.	.	.	.	.	8g\	.	.	.
!	!	!LO:LB:g=original	!	!	!	!	!	!	!
4A/	-le	8F/	-do	.	.	8a\	.	8cc\	do
.	.	8F/	Nè	.	.	8f\	.	8cc\	ne
2r	.	4G/	ſtra-	2d\	Nè	4b-\	.	4b-/	ſtra-
.	.	4D/	-le	.	.	8f\	-do	4a/	-le
.	.	.	.	.	.	8f\	nè	.	.
=23-	=23-	=23-	=23-	=23-	=23-	=23-	=23-	=23-	=23-
4r	.	4r	.	8G/	vo-	4g\	ſtra-	2r	.
.	.	.	.	8A/	-la	.	.	.	.
4f\	Nè	4d\	Nè	8B-y/	ſi	4d/	-le	.	.
.	.	.	.	8c/	leg-	.	.	.	.
8f\	vo-	8d\	vo-	2d\	-gier	4r	.	4r	.
8e\	-la	8c\	-la	.	.	.	.	.	.
8d\	ſi	8B-\	ſi	.	.	4b-\	Nè	4dd\	Nè
8c/	leg-	8A\	leg-	.	.	.	.	.	.
2B-/	-gier	2G/	-gier	2r	.	8b-\	vo-	8dd\	vo-
.	.	.	.	.	.	8a\	-la	8cc\	-la
.	.	.	.	.	.	8g\	ſi	8b-/	ſi
.	.	.	.	.	.	8f\	leg-	8a/	leg-
8c/	dar-	2r	.	8e\	dar-	2e/	-gier	4g/	-gier
8d\	.	.	.	8f\	.	.	.	.	.
8e\	.	.	.	8g\	.	.	.	4.cc\	dar-
8c\	.	.	.	8e\	.	.	.	.	.
=24-	=24-	=24-	=24-	=24-	=24-	=24-	=24-	=24-	=24-
4f\	.	2r	.	4a\	.	2r	.	.	.
.	.	.	.	.	.	.	.	8cc\	-do
8c\	-do	.	.	8e\	-do	.	.	4cc\	nè
8c\	ne	.	.	8e\	nè	.	.	.	.
4d\	ſtra-	4r	.	4f\	ſtra-	4r	.	2a/	ſtra-
*	*	*	*ij	*	*	*	*ij	*	*
4A/	-le	4A/	Nè	4c/	-le	4cc\	Nè	.	.
4r	.	8A\	vo-	1r	.	8cc\	vo-	4a/	-le
.	.	8G/	-la	.	.	8b-\	-la	.	.
!	!	!	!	!	!	!	!	!LO:SIC:v:t=custos ff	!
*	*	*	*	*	*	*	*	*	*ij
4a\	Nè	8F/	ſi	.	.	8a\	ſi	4ff\	Nè
.	.	8E/	leg-	.	.	8g\	leg-	.	.
!	!	!	!	!	!	!	!	!LO:LB:g=original	!
8a\	vo-	2D/	-gier	.	.	2f\	-gier	8ff\	vo-
8g\	-la	.	.	.	.	.	.	8ee\	-la
8f\	si	.	.	.	.	.	.	8dd\	ſi
*	*	*	*Xij	*	*	*	*Xij	*	*
!LO:SIC:v:t=custos d	!	!	!	!	!	!	!	!	!
8e\	leg-	.	.	.	.	.	.	8cc\	Nè
!LO:LB:g=original	!	!	!	!	!	!	!	!	!
=25-	=25-	=25-	=25-	=25-	=25-	=25-	=25-	=25-	=25-
2d\	-gier	8G/	dar-	8B-/	dar-	2r	.	2b-/	vo-
!	!	!LO:SIC:v:t=custos B	!	!	!	!	!	!	!
.	.	8A/	.	8c/	.	.	.	.	.
!	!	!LO:LB:g=original	!	!	!	!	!	!	!
.	.	8B-\	.	8d\	.	.	.	.	.
.	.	8G/	.	8B-/	.	.	.	.	.
2r	.	4d\	.	4f\	.	8f\	dar-	8a/	-la
.	.	.	.	.	.	8g\	.	8b-/	ſi
.	.	8A/	-do	8e\	-do	8a\	.	8cc\	leg-
!	!	!	!	!LO:SIC:v:t=custos d	!	!LO:SIC:v:t=custos g	!	!	!
.	.	8A/	nè	8c/	nè	8f\	.	8a/	-gier
!	!	!	!	!LO:LB:g=original	!	!LO:LB:g=original	!	!	!
8d\	dar-	2B-\	ſtra-	4d\	ſtra-	4g\	.	4dd\	dar-
8e\	.	.	.	.	.	.	.	.	.
8f\	.	.	.	4d\	-le	8d/	-do	8dd\	-do
8d\	.	.	.	.	.	8d/	nè	8dd\	nè
4a\	.	2A/	-le	2r	.	2e/	ſtra-	2cc#X\	ſtra-
8e\	-do	.	.	.	.	.	.	.	.
8e\	nè	.	.	.	.	.	.	.	.
=26-	=26-	=26-	=26-	=26-	=26-	=26-	=26-	=26-	=26-
2f\	ſtra-	1r	.	4r	.	4d/	-le	2dd\	-le
.	.	.	.	4d\	nè	4a\	nè	.	.
2e\	-le	.	.	2c#X/	ſtra-	2a\	ſtra-	2r	.
*	*	*	*	*	*	*	*	*	*Xij
=27-	=27-	=27-	=27-	=27-	=27-	=27-	=27-	=27-	=27-
*M3/2	*	*M3/2	*	*M3/2	*	*M3/2	*	*M3/2	*
*met(C.)	*	*met(C.)	*	*met(C.)	*	*met(C.)	*	*met(C.)	*
2r	.	2r	.	1d	-le	1a	-le	1ff	Co-
2d\	Co-	2d\	Co-	.	.	.	.	.	.
2e\	-me	2c\	-me	2r	.	2r	.	2ee\	-me
=28-	=28-	=28-	=28-	=28-	=28-	=28-	=28-	=28-	=28-
2.f\	queſ-	2.B-\	queſ-	1.r	.	1.r	.	2.dd\	queſ-
4f\	-ta	4A\	-ta	.	.	.	.	4ccny\	-ta
2g\	ca-	2G/	ca-	.	.	.	.	2b-\	ca-
=29-	=29-	=29-	=29-	=29-	=29-	=29-	=29-	=29-	=29-
1c	-du-	1F	-du-	1f	Co-	2r	.	1a	-du-
.	.	.	.	.	.	2a\	Co-	.	.
2c/	-ca	2C/	-ca	2e\	-me	2g\	-me	2cc\	-ca e
=30-	=30-	=30-	=30-	=30-	=30-	=30-	=30-	=30-	=30-
2r	.	1.r	.	2.d\	queſ-	2.f\	queſ-	2b-/	bre-
!	!	!	!	!	!	!	!	!LO:SIC:v:t=custos dd	!
2.f\	e	.	.	.	.	.	.	2a/	-ue
.	.	.	.	4cny\	-ta	4e\	-ta	.	.
!	!	!	!	!	!	!	!	!LO:LB:g=original	!
.	.	.	.	2B-/	ca-	2d/	ca-	2dd\	vi-
!LO:SIC:v:t=custos a	!	!	!	!	!	!	!	!	!
4g\	.	.	.	.	.	.	.	.	.
!LO:LB:g=original	!	!	!	!	!	!	!	!	!
=31-	=31-	=31-	=31-	=31-	=31-	=31-	=31-	=31-	=31-
!	!	!LO:N:vis=0	!	!	!	!	!	!	!
1a	.	0.r	.	2A/	-du-	1e	-du-	1cc	-ta
.	.	.	.	2c\	-ca	.	.	.	.
2d\	bre-	.	.	2B-/	e	2g\	-ca e	2r	.
=32-	=32-	=32-	=32-	=32-	=32-	=32-	=32-	=32-	=32-
*col	*	*	*	*col	*	*	*	*	*
2e\	-ue	.	.	2A/	breue	2.a\	bre-	2cc\	e
1f	vi-	.	.	1d	vi-	.	.	2a/	bre-
.	.	.	.	.	.	4g\	-ue	.	.
!	!	!	!	!	!	!	!	!LO:N:acc=#	!
.	.	.	.	.	.	1f\	vi-	2bn/	-ue
*Xcol	*	*	*	*Xcol	*	*	*	*	*
=33-	=33-	=33-	=33-	=33-	=33-	=33-	=33-	=33-	=33-
!	!	!	!	!LO:SIC:v:t=custos c	!	!	!	!	!
1g	-ta	1.r	.	1.c	-ta	.	.	1cc	vi-
.	.	.	.	.	.	2e\	-ta	.	.
2r	.	.	.	.	.	2r	.	2cc\	-ta
!	!	!	!	!LO:LB:g=original	!	!	!	!	!
=34-	=34-	=34-	=34-	=34-	=34-	=34-	=34-	=34-	=34-
*	*ij	*	*ij	*	*	*	*ij	*	*
!	!	!	!	!LO:N:vis=00	!	!	!	!	!
1a	Co-	1F	Co-	00.r	.	1cc	Co-	2r	.
.	.	.	.	.	.	.	.	2ff\	Co-
!	!	!LO:SIC:v:t=custos d	!	!	!	!LO:SIC:v:t=custos a	!	!	!
2g\	-me	2c\	-me	.	.	2cc\	-me	2ee\	-me
!	!	!LO:LB:g=original	!	!	!	!LO:LB:g=original	!	!	!
=35-	=35-	=35-	=35-	=35-	=35-	=35-	=35-	=35-	=35-
2.f\	queſ-	2.d\	queſ-	.	.	2.a\	queſ-	2.dd\	queſ-
4e\	-ta	4A/	-ta	.	.	4a\	-ta	4cc\	-ta
2d\	ca-	2B-\	ca-	.	.	2f\	ca-	2b-y\	ca-
=36-	=36-	=36-	=36-	=36-	=36-	=36-	=36-	=36-	=36-
1c	-du-	1F	-du-	.	.	1f	-du-	1a	-du-
2c/	-ca	2c\	-ca	.	.	2e\	-ca e	2g/	-ca
=37-	=37-	=37-	=37-	=37-	=37-	=37-	=37-	=37-	=37-
*col	*	*col	*Xij	*	*	*	*	*	*
2d\	e	2B-\	e bre-	.	.	2g\	bre-	2r	.
2e\	breue	2A/	-ue	.	.	1a	-ue	2cc\	e
1f\	vi-	1d\	vi-	.	.	.	.	2a/	bre-
=38-	=38-	=38-	=38-	=38-	=38-	=38-	=38-	=38-	=38-
*	*	*	*	*	*	*	*	*col	*
!	!	!	!	!LO:N:vis=1	!	!	!	!LO:N:acc=#	!
.	.	.	.	1.r	.	1f	vi-	2bn/	-ue
1g	-ta	1c	-ta	.	.	.	.	1cc	vi-
.	.	.	.	.	.	2e\	.	.	.
*Xcol	*Xij	*Xcol	*	*	*	*	*	*Xcol	*
=39-	=39-	=39-	=39-	=39-	=39-	=39-	=39-	=39-	=39-
*M2/1	*	*M2/1	*	*M2/1	*	*M2/1	*	*M2/1	*
*met(C)	*	*met(C)	*	*met(C)	*	*met(C)	*	*met(C)	*
1r	.	2r	.	2r	.	1f	-ta	1a	-ta
.	.	2F/	e	2c/	e	.	.	.	.
2r	.	2D/	bre-	2B-/	bre-	2r	.	2r	.
*	*	*	*	*	*	*	*Xij	*	*ij
2c/	e	2F/	-ue	2A/	-ue	2a\	e	2ff\	e
=40-	=40-	=40-	=40-	=40-	=40-	=40-	=40-	=40-	=40-
*	*	*lig	*	*	*	*	*	*	*
2B-/	bre-	1BB-	vi-	1d	vi-	4g\	bre-	2dd\	bre-
.	.	.	.	.	.	4f\	-ue	.	.
2A/	-ve	.	.	.	.	2.f\	vi-	2ff\	-ue
!	!	!	!	!LO:N:vis=00	!	!	!	!	!
1G	vi-	1C	.	0.c	-ta.	.	.	1cc	vi-
.	.	.	.	.	.	8e/	.	.	.
.	.	.	.	.	.	8d/	.	.	.
.	.	.	.	.	.	2e/	.	.	.
*	*	*Xlig	*	*	*	*	*	*	*
=41-	=41-	=41-	=41-	=41-	=41-	=41-	=41-	=41-	=41-
!LO:N:vis=00	!	!LO:N:vis=00	!	!	!	!LO:N:vis=00	!	!LO:N:vis=00	!
0F	-ta.	0F	-ta.	.	.	0f	-ta.	0a	-ta
*	*	*	*	*	*	*	*	*	*Xij
==	==	==	==	==	==	==	==	==	==
*-	*-	*-	*-	*-	*-	*-	*-	*-	*-
!!!system-decoration: [(s1,s2,s3,s4,s5)]
!!!ENC: Filip Voros
!!!END: 2022-06-29
!!!ENC: Jan Barakat
!!!END: 2022-07-16
